X: 19997
T: Jim McAllister's
R: jig
M: 6/8
K: Gmajor
|:GgG eGd|GBG AGE|DGG AGA|Bee dBA|
GgG eGd|GBG AGE|DGG AGA|1 BGG G2A:|2 BGG G2d||
|:dgb agf|gfg edB|eAA ABA|GBA GFE|
DGG AGA|Bdd e/f/ge|dBG AGA|1 BGG G2d:|2 BGG G2A||

